X: 24815
T: Maggie Pickins
R: strathspey
M: 4/4
K: Amajor
A>F E>F A>B c>e|e>c (3cBA B>A F2|A>F E>F A>B c>e|e>c (3BcB A2 A2:|
(3fef a>e f2 a>f|e>c (3cBA B>A F>e|(3fef a>e f2 a>f|e>c (3cBA B2 A2|
(3fef a>e f2 a>f|e>c (3cBA B>A F>A|A>F E>F A>B c>e|e>c (3BcB A2 A2||

